X:1
T: Sir James G. Baird's Strathspey
C:
R:Strathspey
Q: 128
K:G
M:4/4
L:1/16
|:B2|G3F GD3 G3F GD3|EC3 A3G FA3 A3B|G3F GD3 E3D Ee3|d3c B3A BG3 G3B|
G3F GD3 G3F GD3|EC3 A3G FA3 A3B|G3F GD3 E3D EB,3|CA,3 D3C B,2G,2 G,2d2|
gd3 gB3 gd3 gB3|cA3 d3G F2A2 A2Bc|dB3 gd3 ec3 dD3|Ec3 B3A BG3 G3d|
gd3 gB3 gd3 gB3|cA3 d3G FA3 A3B|G3B dD3 E2G2 c3e|d3c B3A B2G2 G2:|
